X:22
T:polca
R:polka
C:trad. de Escalona
A:Pirineo Aragones (Central) espaol
O:Escalona (Huesca)
Z:L. M. Escalona
M:2/4
L:1/16
Q:1/4=80
K:Cm
zB|e2>d c2>B|A2A2 A2zB|d2>c B2>A|G2G2 G2
zB|e2e2 e2zB|d2d2 d2Bc|d2dc BAGF|E4-E2z2|
G2B2A2G2|F2ccc2zA|F2ddd2(3cdc|B2eee2z2|
G2B2A2G2|F2ccc2z2|B2dc BAGF|E4-E2:|
